Papirus/22x22/panel/si-syncing-6.svg

<?xml version="1.0" encoding="UTF-8" standalone="no"?>
<svg id="svg2" xmlns:rdf="http://www.w3.org/1999/02/22-rdf-syntax-ns#" xmlns="http://www.w3.org/2000/svg" viewBox="0 0 22 22" width="22" version="1.1" xmlns:cc="http://creativecommons.org/ns#" height="22" xmlns:dc="http://purl.org/dc/elements/1.1/">
 <metadata id="metadata12">
  <rdf:RDF>
   <cc:Work rdf:about="">
    <dc:format>image/svg+xml</dc:format>
    <dc:type rdf:resource="http://purl.org/dc/dcmitype/StillImage"/>
    <dc:title/>
   </cc:Work>
  </rdf:RDF>
 </metadata>
 <path id="path6" d="m11 19a8 8 0 0 0 8 -8 8 8 0 0 0 -8 -8 8 8 0 0 0 -8 8 8 8 0 0 0 8 8zm0-2a6 6 0 0 1 -4.4863 -2.023 1.5 1.5 0 0 1 -0.2637 0.023 1.5 1.5 0 0 1 -1.5 -1.5 1.5 1.5 0 0 1 0.4336 -1.053 6 6 0 0 1 -0.1836 -1.447 6 6 0 0 1 1.1738 -3.5527 1.5 1.5 0 0 1 -0.1738 -0.6973 1.5 1.5 0 0 1 1.5 -1.5 1.5 1.5 0 0 1 0.9395 0.332 6 6 0 0 1 2.5605 -0.582 6 6 0 0 1 5.191 3.002 1.5 1.5 0 0 1 0.059 -0.002 1.5 1.5 0 0 1 1.5 1.5 1.5 1.5 0 0 1 -0.75978 1.3008 6 6 0 0 1 0.0098 0.19921 6 6 0 0 1 -6 6zm0-1a5 5 0 0 0 5 -5 5 5 0 0 0 -0.000003 -0.02148 1.5 1.5 0 0 1 -1.0645 -0.76172l-3.4609 0.55273a1.5 1.5 0 0 1 -1.4746 1.2305 1.5 1.5 0 0 1 -0.79102 -0.22656l-1.543 1.234a1.5 1.5 0 0 1 0.084 0.492 1.5 1.5 0 0 1 -0.3516 0.965 5 5 0 0 0 3.6016 1.535zm-3.959-3.773 1.543-1.235a1.5 1.5 0 0 1 -0.084 -0.492 1.5 1.5 0 0 1 0.3008 -0.898l-0.9336-1.3989a1.5 1.5 0 0 1 -0.3672 0.0469 1.5 1.5 0 0 1 -0.5898 -0.1211 5 5 0 0 0 -0.9102 2.8711 5 5 0 0 0 0.1074 1.008 1.5 1.5 0 0 1 0.1426 -0.008 1.5 1.5 0 0 1 0.791 0.227zm4.2734-2.4434 3.4609-0.55469a1.5 1.5 0 0 1 0.479 -0.8481 5 5 0 0 0 -4.254 -2.3809 5 5 0 0 0 -2.0332 0.4395 1.5 1.5 0 0 1 0.0332 0.3105 1.5 1.5 0 0 1 -0.3008 0.8985l0.93359 1.3984a1.5 1.5 0 0 1 0.36719 -0.04687 1.5 1.5 0 0 1 1.3145 0.7832z" fill="#fff"/>
</svg>

<?xml version="1.0" encoding="UTF-8" standalone="no"?>
<svg xmlns:dc="http://purl.org/dc/elements/1.1/" xmlns:cc="http://creativecommons.org/ns#" xmlns:rdf="http://www.w3.org/1999/02/22-rdf-syntax-ns#" xmlns:svg="http://www.w3.org/2000/svg" xmlns="http://www.w3.org/2000/svg" id="svg2" viewBox="0 0 22 22" version="1.1" width="22" height="22">
    <metadata id="metadata12">
        <rdf:RDF>
            <cc:Work rdf:about="">
                <dc:format>
                    image/svg+xml
                </dc:format>
                <dc:type rdf:resource="http://purl.org/dc/dcmitype/StillImage"/>
                <dc:title/>
            </cc:Work>
        </rdf:RDF>
    </metadata>
    <path d="m 11,19 a 8,8 0 0 0 8,-8 8,8 0 0 0 -8,-8 8,8 0 0 0 -8,8 8,8 0 0 0 8,8 z m 0,-2 A 6,6 0 0 1 6.5137,14.977 1.5,1.5 0 0 1 6.25,15 1.5,1.5 0 0 1 4.75,13.5 1.5,1.5 0 0 1 5.1836,12.447 6,6 0 0 1 5,11 6,6 0 0 1 6.1738,7.4473 1.5,1.5 0 0 1 6,6.75 1.5,1.5 0 0 1 7.5,5.25 1.5,1.5 0 0 1 8.4395,5.582 6,6 0 0 1 11,5 6,6 0 0 1 16.1914,8.002 1.5,1.5 0 0 1 16.25,8 a 1.5,1.5 0 0 1 1.5,1.5 1.5,1.5 0 0 1 -0.75978,1.3008 6,6 0 0 1 0.0098,0.19921 6,6 0 0 1 -6,6 z m 0,-1 a 5,5 0 0 0 5,-5 5,5 0 0 0 -3e-6,-0.02148 1.5,1.5 0 0 1 -1.0645,-0.76172 l -3.4609,0.55273 a 1.5,1.5 0 0 1 -1.4746,1.2305 1.5,1.5 0 0 1 -0.79102,-0.22656 l -1.543,1.234 a 1.5,1.5 0 0 1 0.084,0.492 1.5,1.5 0 0 1 -0.3516,0.965 5,5 0 0 0 3.6016,1.535 z M 7.041,12.227 8.584,10.992 A 1.5,1.5 0 0 1 8.5,10.5 1.5,1.5 0 0 1 8.8008,9.602 L 7.8672,8.2031 A 1.5,1.5 0 0 1 7.5,8.25 1.5,1.5 0 0 1 6.9102,8.1289 5,5 0 0 0 6,11 5,5 0 0 0 6.10742,12.0078 1.5,1.5 0 0 1 6.24999,12 1.5,1.5 0 0 1 7.04101,12.22656 Z m 4.2734,-2.4434 3.4609,-0.55469 a 1.5,1.5 0 0 1 0.479,-0.8481 5,5 0 0 0 -4.254,-2.3809 5,5 0 0 0 -2.0332,0.4395 1.5,1.5 0 0 1 0.0332,0.3105 1.5,1.5 0 0 1 -0.3008,0.8985 l 0.93359,1.3984 a 1.5,1.5 0 0 1 0.36719,-0.04687 1.5,1.5 0 0 1 1.3145,0.7832 z" id="path6" style="fill:#ffffff;fill-opacity:1;opacity:1"/>
</svg>
